X: 13164
T: First Of May, The
R: barndance
M: 4/4
K: Gmajor
|:g2 d2 cedc|BdGB cedc|BdGB cedc|BAGB A2 d2|
g2 d2 cedc|BdGB cedc|BdG2 AcBA|G2 F2 G4:|
|:defg a2 a2|defg a2 a2|defg a2 a2|agfe d2 d2|
e2 c2 e2 g2|dBGB d2 d2|dgfe dcBA|G2 F2 G4:|

